X: 1
T: OLD NATIONAL THEATRE -- JIG
B: Ryan's Mammoth Collection of Fiddle Tunes
R: jig
M: 2/4
L: 1/16
Z: Contributed 20020511153826 by John Chambers jmchambers:rcn.com
K: G
vB2GD EGD2 | zuBGB dged | zvBGD EGD2 | {a}vgfge dged |
|zuBGD EGD2 | zuBGB dged | zvBGD EGD2 | {a}gfge dged :|
|: vg2dg egdg | egdg eaa2 | {a}gfge dged | zuged ((3Bcd) ((3def) |
| g2dg egdg | egdg eaa2 | ((3gab) ((3efg) dged | zugdB ABG2 :|
